X:66
T:We're a Noddin
C:arr. Carlo Minasi
M:C
L:1/8
B:Chappell's One Hundred Scotch Melodies
B:Arranged for the Concertina by Carlo Minasi
Q:"Allegretto  "1/4=140
Z:Peter Dunk 2012
K:G
!p![GB,][AC]|L([B4D4] [A2C2][G2B,2])|\
[A2C2][A2C2] ([BD][AC][GB,][AC])|\
L([B4D4] [A2C2][G2B,2])|([BFC]AGF) [G2B,2]||
%
!mf!([BG][cA])|[d2B2] [dB][dB] [d2B2]([ge]>[ec])|\
[d2B2] [dB][dB] [d2B2] ([BG][cA])|\
[d2B2]  dd (e=fed)|
%
(cBAG) HF2 (dc)|B2 (Bc) d2 (ge)|\
d2 dd Hd2 (Bc)|[d2B2G2] [d=F]d ([e^GE]dcB)|
%
([cA]BAG) ([^F2D2] [GB,][AD])|L([B4G4] [A2D2][G2B,2])|\
[A2D2][A2D2]([BG][AD][GB,][AD])|L([B4G4] \
[A2D2][G2B,2])|([BFC]AGF) [G2B,2]||

